X:1
T:MacNamara's Band
T:MacNamara's Band
T:John Stamford
C:John Stamford
%%score { 1 | 2 }
L:1/8
Q:1/4=120
M:6/8
K:C
V:1 treble nm="Accordion" snm="Acc."
V:2 bass 
V:1
"^Allegro""^Swing" GF |: .EEE .E z/ E z/ | .EEE .E z/ E z/ | .EEE{/C} D2 .C | G,4- G,D/E/ | %5
w: Verse1:Oh my|name * is Mac Na|ma * ra I'm the|lead * er of the|band; * and al-|
 .FFF .FGF | .EEE .EFE | D2 .C [B,F]2 .[CA] | [DG]4 GF | .EEE .E z/ E z/ | .EEE .E z/ E z/ | %11
w: though we are sma' * in|num * ber we' re the|best in all the|land. And of|course I am the con|duc t or and I've|
 .EEE{/C} D2 .C | G,4 DE | F2 .F E2 .D | G2 .E C2 .A, | G,2 .F E2 .D | C4 GF | E2 .E .E.EE | %18
w: of * ten had tae|play, wi' *|a' the fine mu|sic ians that you|read a- boot to-|day. Chorus:Oh the|drums they bang and the|
 E2 .E .E.EE | [A,E]2 .[CE] [DF]2 .[CA] | [G,-G]4 G,D/E/ | .FFF .FGF | .E2 E .EFE | D2 .C B,2 .C | %24
w: cym bals clang and the|horns they blaze a|way * Oh Mac|Carth * y puffs on the|auld bas- soon a- nd|Doyle the pipes does|
 [DG]3- [DG]GF | .EEE .EEE | .EEE .EEE | .EEE D2 .C | G,4- G,D/E/ | F2 .F E2 .D | G2 .E C2 .A, | %31
w: play. * O- h|Henn- es say too- tles the|flute * * an' a the|mus ic is some- thing|grand. * It's a|cre- dit to auld|Ire- land boys, is|
 G,2 .F E2 .D | C3 G,A,B, | C6- | C2 E G2 E | D6 | A,4 DC | B,2 .G ^F2 .G | [FA]2 .G .FED | E6- | %40
w: Mac Na Mar a's|band. Ta ra ra|ra,|* ra ra ra|ra|ra. Ta ra|rum ta ra ra|rum ta ra ra ra|ra.|
 E3 G,A,B, | C6- | C2 .E G2 .E | D6 | A,4 DC | B,2 .G ^F2 .G | A2 .G FED |1 %47
w: * Ta ra ra|ra,|* ra ra ra|ra|ra. Ta ra|rum ta ra ra|rum ta ra ra ra|
"^Verse2:\nWhenever an election's on, we play on either side.\nThe way we play oor fine auld airs, fills Irish hearts wi' pride.\nOh if poor Tam Moore was livin' now, he'd mak' ye understand.\nThat nane could dae him justice like auld MacNamara's band.\n\nChorus...\n\nVerse3:\nWe play at wakes and waddins an' at every country ball.\nAnd at any great man's funeral wee'll play 'Dead March in Saul'.\nWhen the Prince O' Wales tae Ireland cam' he shook me by the hand.\nAnd said he'd never heard the like o' MacNamara's band.\n\nChorus...\n\nVerse4: Richt now we're rehearsing for a verra swell affair.\nThe annual celebration a' the gentry will be there.\nWhen General Grant tae Ireland cam' he took me by the hand.\nSays he 'I never saw the like o' MacNamara's band.'\n\nThe Tottenham Hotspur football anthem uses the verse:\n\nOh the whistle blows, the cockerel crows, and now we're in the game.\nIt's up to you , you lillywhites to play the Tottenham way.\nOh there's many a team from many a town, and some are great and small.\nBut the famous Tottenham Hotspur are the greatest of them all.\n\n\n\n\n" C6- | %48
w: ra.|
 C3 G2 .F :|2 C3 GAB || .c z z .c z2 |] %51
w: |||
V:2
 z2 |:"_C" .C,,3/2 z/"_CM" .[CEG]"_G" .G,,3/2 z/"_CM" .[CEG] | %2
"_C" .C,,3/2 z/"_CM" .[CEG]"_G" .G,,3/2 z/"_CM" .[CEG] | %3
"_C" .C,,3/2 z/"_CM" .[CEG]"_G" .G,,3/2 z/"_CM" .[CEG] | %4
"_C" .C,,3/2 z/"_CM" .[CEG]"_G" .G,,3/2 z/"_CM" .[CEG] | %5
"_F" .F,,3/2 z/"_FM" .[F,A,C]"_C" .C,,3/2 z/"_FM" .[F,A,C] | %6
"_C" .C,,3/2 z/"_CM" .[CEG]"_G" .G,,3/2 z/"_CM" .[CEG] | %7
"_G" .G,,3/2 z/"_GM" .[G,B,D]"_B""_-" .B,,3/2 z/"_GM" .[G,B,D] | %8
"_G" .G,,3/2 z/"_GM" .[G,B,D]"_B""_-" .B,,3/2 z/"_GM" .[G,B,D] | %9
"_C" .C,,3/2 z/"_CM" .[CEG]"_G" .G,,3/2 z/"_CM" .[CEG] | %10
"_C" .C,,3/2 z/"_CM" .[CEG]"_G" .G,,3/2 z/"_CM" .[CEG] | %11
"_C" .C,,3/2 z/"_CM" .[CEG]"_G" .G,,3/2 z/"_CM" .[CEG] | %12
"_C" .C,,3/2 z/"_CM" .[CEG]"_G" .G,,3/2 z/"_CM" .[CEG] | %13
"_F" .F,,3/2 z/"_FM" .[F,A,C]"_C" .C,,3/2 z/"_FM" .[F,A,C] | %14
"_C" .C,,3/2 z/"_CM" .[CEG]"_G" .G,,3/2 z/"_CM" .[CEG] | %15
"_G" .G,,3/2 z/"_GM" .[G,B,D]"_B""_-" .B,,3/2 z/"_G7" .[F,G,B,] | %16
"_C" .C,,3/2 z/"_CM" .[CEG]"_G" .G,,3/2 z/"_CM" .[CEG] | %17
"_C" .C,,3/2 z/"_CM" .[CEG]"_G" .G,,3/2 z/"_CM" .[CEG] | %18
"_C" .C,,3/2 z/"_CM" .[CEG]"_G" .G,,3/2 z/"_CM" .[CEG] | %19
"_C" .C,,3/2 z/"_CM" .[CEG]"_G" .G,,3/2 z/"_CM" .[CEG] | %20
"_C" .C,,3/2 z/"_CM" .[CEG]"_G" .G,,3/2 z/"_CM" .[CEG] | %21
"_F" .F,,3/2 z/"_FM" .[F,A,C]"_C" .C,,3/2 z/"_FM" .[F,A,C] | %22
"_C" .C,,3/2 z/"_CM" .[CEG]"_G" .G,,3/2 z/"_CM" .[CEG] | %23
"_G" .G,,3/2 z/"_GM" .[G,B,D]"_B""_-" .B,,3/2 z/"_GM" .[G,B,D] | %24
"_G" .G,,3/2 z/"_GM" .[G,B,D]"_B""_-" .B,,3/2 z/"_GM" .[G,B,D] | %25
"_C" .C,,3/2 z/"_CM" .[CEG]"_G" .G,,3/2 z/"_CM" .[CEG] | %26
"_C" .C,,3/2 z/"_CM" .[CEG]"_G" .G,,3/2 z/"_CM" .[CEG] | %27
"_C" .C,,3/2 z/"_CM" .[CEG]"_G" .G,,3/2 z/"_CM" .[CEG] | %28
"_C" .C,,3/2 z/"_CM" .[CEG]"_G" .G,,3/2 z/"_CM" .[CEG] | %29
"_F" .F,,3/2 z/"_FM" .[F,A,C]"_C" .C,,3/2 z/"_FM" .[F,A,C] | %30
"_C" .C,,3/2 z/"_CM" .[CEG]"_G" .G,,3/2 z/"_CM" .[CEG] | %31
"_G" .G,,3/2 z/"_GM" .[G,B,D]"_B""_-" .B,,3/2 z/"_GM" .[G,B,D] | %32
"_C" .C,,3/2 z/"_CM" .[CEG]"_G" .G,,3/2 z/"_CM" .[CEG] | %33
"_C" .C,,3/2 z/"_CM" .[CEG]"_G" .G,,3/2 z/"_CM" .[CEG] | %34
"_C" .C,,3/2 z/"_CM" .[CEG]"_G" .G,,3/2 z/"_CM" .[CEG] | %35
"_D" .D,,3/2 z/"_Dm" .[DFA]"_A" .A,,3/2 z/"_Dm" .[DFA] | %36
"_D" .D,,3/2 z/"_Dm" .[DFA]"_A" .A,,3/2 z/"_Dm" .[DFA] | %37
"_D" .D,,3/2 z/"_Dm" .[DFA]"_A" .A,,3/2 z/"_Dm" .[DFA] | %38
"_D" .D,,3/2 z/"_Dm" .[DFA]"_A" .A,,3/2 z/"_Dm" .[DFA] | %39
"_C" .C,,3/2 z/"_CM" .[CEG]"_G" .G,,3/2 z/"_CM" .[CEG] | %40
"_C" .C,,3/2 z/"_CM" .[CEG]"_G" .G,,3/2 z/"_CM" .[CEG] | %41
"_C" .C,,3/2 z/"_CM" .[CEG]"_G" .G,,3/2 z/"_CM" .[CEG] | %42
"_C" .C,,3/2 z/"_CM" .[CEG]"_G" .G,,3/2 z/"_CM" .[CEG] | %43
"_D" .D,,3/2 z/"_Dm" .[DFA]"_A" .A,,3/2 z/"_Dm" .[DFA] | %44
"_D" .D,,3/2 z/"_Dm" .[DFA]"_A" .A,,3/2 z/"_Dm" .[DFA] | %45
"_G" .G,,3/2 z/"_GM" .[G,B,D]"_B""_-" .B,,3/2 z/"_GM" .[G,B,D] | %46
"_G" .G,,3/2 z/"_G7" .[F,G,B,]"_D" .D,,3/2 z/"_G7" .[F,G,B,] |1 %47
"_C" .C,,3/2 z/"_CM" .[CEG]"_G" .G,,3/2 z/"_CM" .[CEG] | %48
"_C" .C,,3/2 z/"_CM" .[CEG]"_G" .G,,3/2 z/"_CM" .[CEG] :|2 %49
"_C" .C,,3/2 z/"_CM" .[CEG]"_G" .G,,3/2 z/"_CM" .[CEG] ||"_CM/C" .[C,,CEG] z z .[C,,CEG] z2 |] %51

